X:281
T:Tommy Peoples'
T:Jenny Nettle's Fancy
R:reel
Z:id:hn-reel-281
M:C|
K:Bm
~B3c dBAF|~B3c dfec|~B3c dcdB|ABde fdec:|
|:dfaf bfaf|dfaf g2fg|afge dcdB|ABde fdec:|

